!!!COM: Anon.
!!!OCL: Francis James Child
!!!OPR: The English and Scottish Popular Ballads
!!!OVM: Vol. 1
!!!ONB: Ballad No. 53, Tune No. 2
!!!ONM: No. 53
!!!PDT: 1882
!!!YEM: Public domain.
**kern
*M4/4
{4c
=1
4c
4e
4g
4a
=2
4g
4e
4.c}
!! Second phrase:
{8c
=3
4c
4e
4g
4cc
=4
4dd
4b
4g;}
!! Third phrase:
{4g
=5
4cc
4b
4cc
4a
=6
4g
4e
4c}
!! Fourth phrase:
{4c
=7
4c
4e
4e
4g
=8
4e
4d
4c;}
====
*-
!!!OCY: Britain; England
!!!PPP: Boston
!!!ODT: <1882
!!!AFR: folk song
!!!AST: monophony
!!!AMT: simple quadruple
!!!SCA: Child Collection
!!!AIN: vox
!!!EEV: 1.0
!!!RDT: 1987 June
!!!YER: 1994 August 10
!!!VTS: 652652838
